X:347
T:Quand nous partîmes de Toulon
C:trad.
A:Normandie
O:France
Z:S. Piron
M:6/8
L:1/8
Q:1/4=130
K:C
c3-c2B|A2AB2G|A6|c3-c2B|A2AB2G|A6|
|c2de2e|e2ee2d|g3-g2 g|e2ed2d|c6|
|c2de3-|e2c d3-|d2eA2G|c2c B2A|B2 GA3||
W:
W:Quand nous partîmes de Toulon
W:Pour faire la pêche au poisson
W:Nous étions notre équipage
W:Dix-sept jeunes matelots
W:Qui ne craignaient point l'orage
W:La mer ses terribles flots.
W:
W:Nous n'étions pas montés à bord
W:Que nous pensions tous à la mort
W:Embrassant nos bonnes amies
W:Que nous aimions si tendrement
W:Notre pauvre coeur qui soupire
W:Leur dit adieu en pleurant.
W:
W:Les ayant toutes embrassées
W:Elles se mirent toutes à pleurer
W:Fallait avoir bien du courage
W:Mais nous étions bien forcés
W:Car notre doux langage
W:N'a pas pu les consoler.
W:
W:Le capitaine qui pleurait
W:Parlant à sa bien-aimée
W:Oh ma mie ma douce amie
W:Implore le Dieu d'amour
W:Qu'il nous conserve la vie
W:Nous ramène auprès de vous.
W:
W:Nous n'avions pas fait six cent lieues
W:Qu'entre la mer et les cieux
W:On entend gronder le tonnerre
W:Tout le ciel est en clarté
W:Matelots que faut-il faire
W:Voilà notre bateau percé
W:
W:Voilà toutes nos voiles perdues
W:Et notre grand mât rompu
W:Matelots prenons courage
W:Forçons notre bâtiment
W:Voilà la mer qui abonde
W:Vite à la pompe il faut pomper
W:
W:Celui qui faisait son quart
W:Ne pouvait plus tenir la barre
W:Il dit à ses camarades
W:Attachez-moi sous les bras
W:Ah voyez quelle tristesse
W:J'ai souffert mille combats
W:
W:Celui qui nous a sauvé
W:C'est un capitaine anglais
W:Naviguant sur La Rochelle
W:Faisant sonner carillon
W:La tempête nous ramène
W:Tout droit au port de Toulon.

